X:1448
T:Polska efter Ingels Jan Andersson (SvL Dalarna 1448)
R:Polska
S:Ingels Jan Andersson
O:St. Skedvi, Dalarna
N:Svenska Låtar Dalarna, 1448
B:Svenska Låtar Dalarna
Z:Till abc Jonas Brunskog
M:3/4
L:1/8
Q:1/4=138
K:Am
e2 c2 d2|e2 c2 d2|fe de fg|ag e4:|
|:e2 a^g a=g|fg df d2|c2 ec ed|Bc A4:|

